svgs/sharp-light/hand-love.svg

<svg xmlns="http://www.w3.org/2000/svg" viewBox="0 0 512 512"><!--! Font Awesome Pro 6.6.0 by @fontawesome - https://fontawesome.com License - https://fontawesome.com/license (Commercial License) Copyright 2024 Fonticons, Inc. --><path d="M128 0l16 0 80 0 16 0 0 16 0 48s0 0 0 0l0 16 0 64 64 0 16 0 0 16 0 8 48 0 0-88 0-16 16 0 80 0 16 0 0 16 0 255.9s0 0 0 0l0 .1s0 0 0 0c0 97.2-78.8 176-176 176c0 0 0 0 0 0l-8.5 0c-65.8 0-128.9-26.1-175.4-72.6L16.4 335.6 4.7 323.9 0 319.2l0-6.6 0-33.1 0-6.6 4.7-4.7 40-40L56 216.8l11.3 11.3 28.3 28.3L128 288.8 128 16l0-16zm80 176l0-16 0-128-48 0 0 272 0 6.6-4.7 4.7L143.6 327l-11.3 11.3L121 327 73 279l-17-17-24 24 0 19.9 7 7L142.8 416.7c40.5 40.5 95.4 63.3 152.7 63.3l8.4 0c0 0 0 0 0 0c79.5 0 144-64.5 144-144c0 0 0 0 0 0l0-.1s0 0 0 0L448 96l-48 0 0 16 0 224 0 16-16 0-64 0-16 0-16 0-64 0-16 0 0-16 0-160s0 0 0 0zm160 24l-48 0 0 8 0 112 48 0 0-120zM288 320l0-64 0-80-48 0 0 144 48 0z"/></svg>

<svg xmlns="http://www.w3.org/2000/svg" viewBox="0 0 512 512"><!--! Font Awesome Pro 6.4.2 by @fontawesome - https://fontawesome.com License - https://fontawesome.com/license (Commercial License) Copyright 2023 Fonticons, Inc. --><path d="M128 0h16 80 16V16 64h0V80v64h64 16v16 8h48V80 64h16 80 16V80 335.9v0l0 .1v0c0 97.2-78.8 176-176 176l0 0h-8.5c-65.8 0-128.9-26.1-175.4-72.6L16.4 335.6 4.7 323.9 0 319.2v-6.6V279.4v-6.6l4.7-4.7 40-40L56 216.8l11.3 11.3 28.3 28.3L128 288.8V16 0zm80 176V160 32H160V304v6.6l-4.7 4.7L143.6 327l-11.3 11.3L121 327 73 279l-17-17-24 24v19.9l7 7L142.8 416.7c40.5 40.5 95.4 63.3 152.7 63.3H304l0 0c79.5 0 144-64.5 144-144v0l0-.1v0V96H400l0 16V336v16H384 320 304 288 224 208V336 176h0zm160 24H320l0 8V320h48V200zM288 320l0-64V176H240V320h48z"/></svg>
